apps/extension/src/@talisman/theme/icons/download-alert.svg

<svg width="24" height="24" viewBox="0 0 24 24" fill="none" xmlns="http://www.w3.org/2000/svg">
<path d="M21 15V19C21 19.5304 20.7893 20.0391 20.4142 20.4142C20.0391 20.7893 19.5304 21 19 21H5C4.46957 21 3.96086 20.7893 3.58579 20.4142C3.21071 20.0391 3 19.5304 3 19V15" stroke="currentColor" stroke-width="2" stroke-linecap="round" stroke-linejoin="round"/>
<path d="M12 15V3" stroke="currentColor" stroke-width="2" stroke-linecap="round" stroke-linejoin="round"/>
<path fill-rule="evenodd" clip-rule="evenodd" d="M17.2812 11.1331L12.7071 15.7071C12.3166 16.0976 11.6834 16.0976 11.2929 15.7071L6.29289 10.7071C5.90237 10.3166 5.90237 9.68342 6.29289 9.29289C6.68342 8.90237 7.31658 8.90237 7.70711 9.29289L12 13.5858L15.3495 10.2363C15.9223 10.6492 16.5755 10.9575 17.2812 11.1331Z" fill="currentColor"/>
<g clip-path="url(#clip0_2045_48843)">
<path fill-rule="evenodd" clip-rule="evenodd" d="M18.6496 10.3581C21.25 10.3581 23.358 8.25008 23.358 5.64974C23.358 3.0494 21.25 0.941406 18.6496 0.941406C16.0493 0.941406 13.9413 3.0494 13.9413 5.64974C13.9413 8.25008 16.0493 10.3581 18.6496 10.3581ZM18.6503 2.74976C19.0645 2.74976 19.4003 3.08554 19.4003 3.49976V5.38309C19.4003 5.7973 19.0645 6.13309 18.6503 6.13309C18.2361 6.13309 17.9003 5.7973 17.9003 5.38309V3.49976C17.9003 3.08554 18.2361 2.74976 18.6503 2.74976ZM18.6503 7.03309C18.2361 7.03309 17.9003 7.36888 17.9003 7.78309C17.9003 8.1973 18.2361 8.53309 18.6503 8.53309H18.655C19.0692 8.53309 19.405 8.1973 19.405 7.78309C19.405 7.36888 19.0692 7.03309 18.655 7.03309H18.6503Z" fill="#D5FF5C"/>
</g>
<defs>
<clipPath id="clip0_2045_48843">
<rect width="11.3" height="11.3" fill="white" transform="translate(12.9999)"/>
</clipPath>
</defs>
</svg>

<svg viewBox="0 0 24 24" fill="none" xmlns="http://www.w3.org/2000/svg">
    <path d="M21 15v4a2 2 0 01-2 2H5a2 2 0 01-2-2v-4" stroke="currentColor" stroke-width="2" stroke-linecap="round" stroke-linejoin="round"/>
    <path d="M12 15V3" stroke="currentColor" stroke-width="2" stroke-linecap="round" stroke-linejoin="round"/>
    <path fill-rule="evenodd" clip-rule="evenodd" d="M17.281 11.133l-4.574 4.574a1 1 0 01-1.414 0l-5-5a1 1 0 011.414-1.414L12 13.586l3.35-3.35a5.625 5.625 0 001.931.897z" fill="currentColor"/>
    <g clip-path="url(#clip0_2045_48843)">
        <path fill-rule="evenodd" clip-rule="evenodd" d="M18.65 10.358a4.708 4.708 0 100-9.417 4.708 4.708 0 000 9.417zm0-7.608a.75.75 0 01.75.75v1.883a.75.75 0 01-1.5 0V3.5a.75.75 0 01.75-.75zm0 4.283a.75.75 0 000 1.5h.005a.75.75 0 000-1.5h-.005z" fill="#D5FF5C"/>
    </g>
    <defs>
        <clipPath id="clip0_2045_48843">
            <path fill="#fff" transform="translate(13)" d="M0 0h11.3v11.3H0z"/>
        </clipPath>
    </defs>
</svg>
